!!!!SEGMENT: pl-sa--548-a-ix-28--013_puchalski--mazur.krn
!!!cenid: 18xx:436
!!!COM: Puchalski
!!!COM-rismid: pe41021072
!!!CDT: ~1750-~1849
!!!CNT:
!!!OTL: Mazur
!!!PDT:
!!!AGN: Secular; Mazurka
!!!SMS-siglum: PL-SA
!!!SMS-shelfmark: 548/A IX 28
!!!SMS-shelfwork: 013 W
!!!SMS-variant:
!!!SMS-altvar:
!!!NIFC-rismid: 1001068964
!!!URL-scan: http://bc.bdsandomierz.pl/dlibra/publication/1440/edition/1408/content
!!!ONB-nifc: Str. 16, s. 4-5
!!!key:
**kern	**kern
*part2	*part1
*staff2	*staff1
*Iempty	*Iempty
*I"	*I"
*clefF4	*clefG2
*k[f#c#]	*k[f#c#]
*D:	*D:
*M3/8	*M3/8
=1	=1
!	!LO:TX:a:t=P:problem=w źródle ta adnotacja zapisana przed pierwszym systemem
!	!LO:TX:a:i:t=Mazur \nPrzez Puchal \nskiego
8D\L	16.f#\LL
.	32g\K
8A 8F# 8D\	16.a\
.	32b\K
8AJ 8F# 8D\	16.cc#\
.	32dd\JJk
=2	=2
.	8qdd/
8AA\L	16.cc#\LL
.	32b\JJk
8A 8E 8C#\	8cc#\L
8AJ 8E 8C#\	8a\J
=3	=3
*rep	*
8AA\L	16.cc#\LL
.	32dd\K
8A 8E 8C#\	16.ee\
.	32ff#\K
8AJ 8E 8C#\	16.gg\
.	32bb\JJk
*Xrep	*
=4	=4
8D\L	16.aa\LL
.	32ee\JJk
8A 8F#\	8.ff#\L
8AJ 8F#\	.
.	16dd\Jk
=5	=5
*rep	*
8D\L	16.ff#\LL
.	32gg\K
8A 8F#\	16.aa\
.	32bb\K
8AJ 8F#\	16.ccc#\
.	32ddd\JJk
*Xrep	*
=6	=6
.	8qccc#X/
8G\L	16.bb\LL
.	32ff#\JJk
8e 8B 8G\	16gg\LL
.	16ff#\
8c#J 8B 8G\	16ee\
.	16dd\JJ
=7	=7
8A\L	16cc#\LL
.	16ee\
8g 8e 8c#\	16gg\
.	16bb\
8gJ 8e 8c#\	16aa\
.	16cc#\JJ
=8	=8
8f# 8d\	16ee\LL
.	16dd\JJ
4D\	4dd 4a 4f#\
!!LO:LB:g=original
=9	=9
16AA/	16.c#/LL
16r	.
.	32e/JJk
4A 4E 4C# 4AA\	8.aL 8.e 8.c#/
.	16g/Jk
=10	=10
8D\L	16f#/LL
.	16a/JJ
!	!LO:TX:a:t=P:problem=mixed beam
8A 8F#\	8d/L
!	!LO:N:vis=8.
8AJ 8F#\	8dd\J
=11	=11
8AA\L	16cc#\LL
.	16ee\JJ
8A 8E 8C#\	8.aaL 8.ee 8.cc# 8.a\
8AJ 8E 8C#\	.
.	16gg\Jk
=12	=12
8D\L	16ff#\LL
.	16gg\
8A 8F#\	16aa\
.	16bb\
8AJ 8F#\	16ccc#\
.	16ddd\JJ
=13	=13
16AA/	16.c#/LL
16r	.
.	32e/JJk
4A 4E 4C# 4AA\	8.aL 8.e 8.c#/
.	16g/Jk
=14	=14
8D\L	16.f#/LL
!	!LO:N:vis=16.
.	32g/K
8A 8F#\	16.a/
!	!LO:N:vis=16.
.	32b/K
8AJ 8F#\	16.cc#/
!	!LO:N:vis=16.
.	32dd/JJk
=15	=15
8AA\L	16cc#\LL
.	16ee\
8A 8E 8C#\	16gg\
.	16bb\
8AJ 8E 8C#\	16aa\
.	16cc#\JJ
=16	=16
8F# 8D\	16ee\LL
.	16dd\JJ
4D\	4dd 4a 4f#\
==	==
*-	*-
!!!system-decoration: [(s1,s2)]
!!!EED: Antoni Szymański
!!!EST: 2020-11-23
!!!AIN: 2 empty
!!!ENC: Mateusz Solarz
!!!END: 2020-06-15
